src/_assets/sidebar/foot3.svg

<svg width="31" height="30" viewBox="0 0 31 30" fill="none" xmlns="http://www.w3.org/2000/svg">
<path fill-rule="evenodd" clip-rule="evenodd" d="M16.8226 13.4454C17.4745 13.905 18.2761 14.1828 19.1311 14.1828C21.3327 14.1828 23.1282 12.3873 23.1282 10.175C23.1282 7.97343 21.3327 6.17794 19.1311 6.17794C18.5112 6.17794 17.9341 6.31687 17.4104 6.57337C17.9127 7.46043 18.2013 8.48643 18.2013 9.57655C18.2013 11.0407 17.6883 12.3873 16.8226 13.4454Z" fill="url(#paint0_linear_350_73818)"/>
<path fill-rule="evenodd" clip-rule="evenodd" d="M12.0453 14.6638C13.6698 14.6638 15.1126 13.8943 16.0424 12.708C16.7264 11.853 17.1325 10.7628 17.1325 9.57654C17.1325 8.70017 16.9081 7.87723 16.5233 7.16117C15.6576 5.57943 13.9797 4.5 12.0453 4.5C9.24518 4.5 6.96875 6.77643 6.96875 9.57654C6.96875 12.3766 9.24518 14.6638 12.0453 14.6638Z" fill="url(#paint1_linear_350_73818)"/>
<path fill-rule="evenodd" clip-rule="evenodd" d="M20.6091 21.3237C19.6639 18.7563 17.7019 17.013 15.0219 16.3084C14.1486 16.0696 13.1795 15.9502 12.1506 15.9502H12.0908C7.78381 15.9502 4.64928 18.0638 3.47682 21.7536L3.33325 22.1954L3.74002 22.4342C6.01316 23.8313 8.74092 24.5 12.0549 24.5H12.1147C15.5125 24.5119 18.2163 23.8313 20.5014 22.4342L20.9082 22.1954L20.7646 21.7536C20.7167 21.6103 20.6689 21.467 20.6091 21.3237Z" fill="url(#paint2_linear_350_73818)"/>
<path fill-rule="evenodd" clip-rule="evenodd" d="M27.4119 19.4846C26.4853 16.6329 23.9979 15 20.5838 15H20.5351C19.0353 15 17.7307 15.3195 16.6333 15.8993C19.3889 16.8696 21.4374 18.8693 22.3884 21.65C24.2052 21.4606 25.8025 20.9637 27.1437 20.1709L27.5582 19.9224L27.4119 19.4846Z" fill="url(#paint3_linear_350_73818)"/>
<defs>
<linearGradient id="paint0_linear_350_73818" x1="14.7333" y1="4.5" x2="14.7333" y2="24.5498" gradientUnits="userSpaceOnUse">
<stop stop-color="#3C74E1"/>
<stop offset="1" stop-color="#0C2451"/>
</linearGradient>
<linearGradient id="paint1_linear_350_73818" x1="14.7333" y1="4.5" x2="14.7333" y2="24.5498" gradientUnits="userSpaceOnUse">
<stop stop-color="#3C74E1"/>
<stop offset="1" stop-color="#0C2451"/>
</linearGradient>
<linearGradient id="paint2_linear_350_73818" x1="15.1236" y1="2.09821" x2="15.1236" y2="24.4998" gradientUnits="userSpaceOnUse">
<stop stop-color="#3C74E1"/>
<stop offset="1" stop-color="#0C2451"/>
</linearGradient>
<linearGradient id="paint3_linear_350_73818" x1="15.5422" y1="2.68199" x2="15.5422" y2="24.8803" gradientUnits="userSpaceOnUse">
<stop stop-color="#3C74E1"/>
<stop offset="1" stop-color="#0C2451"/>
</linearGradient>
</defs>
</svg>

<svg xmlns="http://www.w3.org/2000/svg" width="31" height="30" fill="none"><path fill="url(#a)" fill-rule="evenodd" d="M16.823 13.445c.651.46 1.453.738 2.308.738a4.007 4.007 0 0 0 3.997-4.008 4.005 4.005 0 0 0-3.997-3.997c-.62 0-1.197.139-1.72.395a6.1 6.1 0 0 1 .79 3.004c0 1.464-.513 2.81-1.378 3.868" clip-rule="evenodd"/><path fill="url(#b)" fill-rule="evenodd" d="M12.045 14.664a5.07 5.07 0 0 0 3.997-1.956 5 5 0 0 0 1.09-3.131c0-.877-.224-1.7-.609-2.416A5.1 5.1 0 0 0 12.045 4.5 5.08 5.08 0 0 0 6.97 9.577c0 2.8 2.276 5.087 5.076 5.087" clip-rule="evenodd"/><path fill="url(#c)" fill-rule="evenodd" d="M20.61 21.324c-.946-2.568-2.908-4.311-5.588-5.016-.873-.238-1.842-.358-2.871-.358h-.06c-4.307 0-7.442 2.114-8.614 5.804l-.144.441.407.24c2.273 1.396 5 2.065 8.315 2.065h.06c3.397.012 6.101-.669 8.386-2.066l.407-.239-.143-.441c-.048-.144-.096-.287-.156-.43" clip-rule="evenodd"/><path fill="url(#d)" fill-rule="evenodd" d="M27.412 19.485C26.485 16.633 23.998 15 20.584 15h-.049c-1.5 0-2.804.32-3.902.9 2.756.97 4.804 2.97 5.755 5.75 1.817-.19 3.414-.686 4.756-1.48l.414-.248z" clip-rule="evenodd"/><defs><linearGradient id="a" x1="14.733" x2="14.733" y1="4.5" y2="24.55" gradientUnits="userSpaceOnUse"><stop stop-color="#3C74E1"/><stop offset="1" stop-color="#0C2451"/></linearGradient><linearGradient id="b" x1="14.733" x2="14.733" y1="4.5" y2="24.55" gradientUnits="userSpaceOnUse"><stop stop-color="#3C74E1"/><stop offset="1" stop-color="#0C2451"/></linearGradient><linearGradient id="c" x1="15.124" x2="15.124" y1="2.098" y2="24.5" gradientUnits="userSpaceOnUse"><stop stop-color="#3C74E1"/><stop offset="1" stop-color="#0C2451"/></linearGradient><linearGradient id="d" x1="15.542" x2="15.542" y1="2.682" y2="24.88" gradientUnits="userSpaceOnUse"><stop stop-color="#3C74E1"/><stop offset="1" stop-color="#0C2451"/></linearGradient></defs></svg>
